build/images/ico/yt-light.svg

<?xml version="1.0" encoding="UTF-8"?>
<svg width="24px" height="24px" viewBox="0 0 24 24" version="1.1" xmlns="http://www.w3.org/2000/svg" xmlns:xlink="http://www.w3.org/1999/xlink">
    <title>YT@1x</title>
    <g id="1.-Design" stroke="none" stroke-width="1" fill="none" fill-rule="evenodd">
        <g id="HP-v.2.1-(schválená)" transform="translate(-1588, -3160)" fill="#01AEE2" fill-rule="nonzero">
            <g id="Partneři-+-patička" transform="translate(0, 2654)">
                <g id="patička" transform="translate(0, 415)">
                    <g id="youtube-2" transform="translate(1588, 91)">
                        <polygon id="Path" points="10.50531 14.248169 14.4087525 12 10.50531 9.75183103"></polygon>
                        <path d="M12,0 C5.3735962,0 0,5.3735962 0,12 C0,18.6264038 5.3735962,24 12,24 C18.6264038,24 24,18.6264038 24,12 C24,5.3735962 18.6264038,0 12,0 Z M19.4982334,12.0122681 C19.4982334,12.0122681 19.4982334,14.4459229 19.1894531,15.6194458 C19.0164185,16.2617798 18.5099487,16.7682495 17.8676147,16.9411011 C16.6940918,17.25 12,17.25 12,17.25 C12,17.25 7.31817628,17.25 6.13238527,16.928833 C5.49005128,16.7559815 4.98358153,16.2493286 4.81054688,15.6069946 C4.50164794,14.4459229 4.50164794,12 4.50164794,12 C4.50164794,12 4.50164794,9.56652834 4.81054688,8.39300536 C4.98339844,7.75067138 5.50231931,7.2317505 6.13238527,7.05889894 C7.3059082,6.75 12,6.75 12,6.75 C12,6.75 16.6940918,6.75 17.8676147,7.07116697 C18.5099487,7.24401853 19.0164185,7.75067138 19.1894531,8.39300536 C19.5106201,9.56652834 19.4982334,12.0122681 19.4982334,12.0122681 L19.4982334,12.0122681 Z" id="Shape"></path>
                    </g>
                </g>
            </g>
        </g>
    </g>
</svg>

<svg width="24" height="24" viewBox="0 0 24 24" xmlns="http://www.w3.org/2000/svg"><g fill="#01AEE2" fill-rule="nonzero"><path d="M10.505 14.248L14.41 12l-3.904-2.248z"/><path d="M12 0C5.374 0 0 5.374 0 12s5.374 12 12 12 12-5.374 12-12S18.626 0 12 0zm7.498 12.012s0 2.434-.309 3.607a1.879 1.879 0 01-1.321 1.322c-1.174.309-5.868.309-5.868.309s-4.682 0-5.868-.321a1.88 1.88 0 01-1.321-1.322C4.5 14.446 4.5 12 4.5 12s0-2.433.31-3.607a1.917 1.917 0 011.321-1.334C7.306 6.75 12 6.75 12 6.75s4.694 0 5.868.321a1.88 1.88 0 011.321 1.322c.322 1.174.31 3.62.31 3.62z"/></g></svg>
